assets/Helicopter/Flat/helicopter_flat.svg

<svg width="32" height="32" viewBox="0 0 32 32" fill="none" xmlns="http://www.w3.org/2000/svg">
<path d="M12 6H13V7H22C22.55 7 23 7.45 23 8C23 8.55 22.55 9 22 9H13V10H12V9H4C3.45 9 3 8.55 3 8C3 7.45 3.45 7 4 7H12V6ZM14 23.71L14.71 23L20.21 28.5L19.5 29.21L14 23.71ZM8 23.67H7V29.33H8V23.67Z" fill="#B4ACBC"/>
<path d="M28.06 7C27.81 7 27.57 7.1 27.39 7.28L23.67 11H10.5C9.67 11 9 11.67 9 12.5C9 13.33 9.67 14 10.5 14H18V19L23 14H27.5C28.33 14 29 13.33 29 12.5V7.93999C29 7.42999 28.58 7 28.06 7Z" fill="#FFB02E"/>
<path d="M13 5.5C13 5.22 12.78 5 12.5 5C12.22 5 12 5.22 12 5.5V6H13V5.5Z" fill="#F8312F"/>
<path d="M2 29C2 28.45 2.45 28 3 28H23C23.55 28 24 28.45 24 29C24 29.55 23.55 30 23 30H3C2.45 30 2 29.56 2 29Z" fill="#FF822D"/>
<path d="M13.41 10H11.59C11.26 10 11 10.27 11 10.59V12H14V10.59C14 10.27 13.73 10 13.41 10Z" fill="#FCD53F"/>
<path d="M27.39 7.28C27.57 7.1 27.81 7 28.06 7C28.58 7 29 7.42999 29 7.93999V12.5C29 13.33 28.33 14 27.5 14H23L19.9373 17.0627C19.9786 17.3694 20 17.6822 20 18C20 21.87 16.8578 25 12.9727 25H8.95706C5.41328 25 2.49191 22.39 2 19L6.59788 16.09L7 11.29C7.63246 11.1 8.25433 11 8.95706 11H23.67L27.39 7.28Z" fill="#FF822D"/>
<path d="M27 13C27.5523 13 28 12.5523 28 12C28 11.4477 27.5523 11 27 11C26.4477 11 26 11.4477 26 12C26 12.5523 26.4477 13 27 13Z" fill="#E6E6E6"/>
<path d="M2.06999 19C2.01999 18.67 2 18.34 2 18C2 14.83 4.11 12.15 7 11.29L11.16 17.71C11.52 18.27 11.12 19 10.46 19H2.06999ZM12.47 16.64L10.29 13.29C9.93 12.74 10.33 12 10.99 12.01H13.17C13.63 12.01 14 12.38 14 12.84V16.19C14 17.02 12.92 17.34 12.47 16.64Z" fill="#00A6ED"/>
<path d="M2.60693 21C2.96693 21.75 3.45203 22.43 4.03203 23H17.89C18.48 22.43 18.9781 21.75 19.3281 21H2.60693Z" fill="#FCD53F"/>
</svg>

<svg xmlns="http://www.w3.org/2000/svg" width="32" height="32" fill="none"><path fill="#B4ACBC" d="M12 6h1v1h9c.55 0 1 .45 1 1s-.45 1-1 1h-9v1h-1V9H4c-.55 0-1-.45-1-1s.45-1 1-1h8V6Zm2 17.71.71-.71 5.5 5.5-.71.71-5.5-5.5Zm-6-.04H7v5.66h1v-5.66Z"/><path fill="#FFB02E" d="M28.06 7c-.25 0-.49.1-.67.28L23.67 11H10.5c-.83 0-1.5.67-1.5 1.5s.67 1.5 1.5 1.5H18v5l5-5h4.5c.83 0 1.5-.67 1.5-1.5V7.94c0-.51-.42-.94-.94-.94Z"/><path fill="#F8312F" d="M13 5.5c0-.28-.22-.5-.5-.5s-.5.22-.5.5V6h1v-.5Z"/><path fill="#FF822D" d="M2 29c0-.55.45-1 1-1h20c.55 0 1 .45 1 1s-.45 1-1 1H3c-.55 0-1-.44-1-1Z"/><path fill="#FCD53F" d="M13.41 10h-1.82c-.33 0-.59.27-.59.59V12h3v-1.41c0-.32-.27-.59-.59-.59Z"/><path fill="#FF822D" d="M27.39 7.28c.18-.18.42-.28.67-.28.52 0 .94.43.94.94v4.56c0 .83-.67 1.5-1.5 1.5H23l-3.063 3.063c.042.306.063.62.063.937 0 3.87-3.142 7-7.027 7H8.957A7.024 7.024 0 0 1 2 19l4.598-2.91.402-4.8A6.617 6.617 0 0 1 8.957 11H23.67l3.72-3.72Z"/><path fill="#E6E6E6" d="M27 13a1 1 0 1 0 0-2 1 1 0 0 0 0 2Z"/><path fill="#00A6ED" d="M2.07 19A7.005 7.005 0 0 1 7 11.29l4.16 6.42a.835.835 0 0 1-.7 1.29H2.07Zm10.4-2.36-2.18-3.35c-.36-.55.04-1.29.7-1.28h2.18c.46 0 .83.37.83.83v3.35c0 .83-1.08 1.15-1.53.45Z"/><path fill="#FCD53F" d="M2.607 21c.36.75.845 1.43 1.425 2H17.89a6.8 6.8 0 0 0 1.438-2H2.607Z"/></svg>
